outline/svg/settings_input_svideo.svg

<svg xmlns="http://www.w3.org/2000/svg" width="24" height="24"><path fill="none" d="M0 0h24v24H0V0z"/><path d="M8 11.5c0-.83-.67-1.5-1.5-1.5S5 10.67 5 11.5 5.67 13 6.5 13 8 12.33 8 11.5zm7-5c0-.83-.67-1.5-1.5-1.5h-3C9.67 5 9 5.67 9 6.5S9.67 8 10.5 8h3c.83 0 1.5-.67 1.5-1.5zM8.5 15c-.83 0-1.5.67-1.5 1.5S7.67 18 8.5 18s1.5-.67 1.5-1.5S9.33 15 8.5 15zM12 1C5.93 1 1 5.93 1 12s4.93 11 11 11 11-4.93 11-11S18.07 1 12 1zm0 20c-4.96 0-9-4.04-9-9s4.04-9 9-9 9 4.04 9 9-4.04 9-9 9zm5.5-11c-.83 0-1.5.67-1.5 1.5s.67 1.5 1.5 1.5 1.5-.67 1.5-1.5-.67-1.5-1.5-1.5zm-2 5c-.83 0-1.5.67-1.5 1.5s.67 1.5 1.5 1.5 1.5-.67 1.5-1.5-.67-1.5-1.5-1.5z" fill="currentColor"/></svg>

<?xml version="1.0" encoding="utf-8"?>
<!-- Generator: Adobe Illustrator 19.1.0, SVG Export Plug-In . SVG Version: 6.00 Build 0)  -->
<svg version="1.1" xmlns="http://www.w3.org/2000/svg" xmlns:xlink="http://www.w3.org/1999/xlink" x="0px" y="0px" width="24px"
	 height="24px" viewBox="0 0 24 24" enable-background="new 0 0 24 24" xml:space="preserve">
<g id="Bounding_Boxes">
	<g id="ui_x5F_spec_x5F_header_copy_3" display="none">
	</g>
	<path fill="none" d="M0,0h24v24H0V0z"/>
</g>
<g id="Rounded" display="none">
	<g id="ui_x5F_spec_x5F_header_copy_5">
	</g>
	<path display="inline" d="M8,11.5C8,10.67,7.33,10,6.5,10S5,10.67,5,11.5S5.67,13,6.5,13S8,12.33,8,11.5z M15,6.5
		C15,5.67,14.33,5,13.5,5h-3C9.67,5,9,5.67,9,6.5S9.67,8,10.5,8h3C14.33,8,15,7.33,15,6.5z M8.5,15C7.67,15,7,15.67,7,16.5
		S7.67,18,8.5,18s1.5-0.67,1.5-1.5S9.33,15,8.5,15z M12,1C5.93,1,1,5.93,1,12s4.93,11,11,11s11-4.93,11-11S18.07,1,12,1z M12,21
		c-4.96,0-9-4.04-9-9s4.04-9,9-9s9,4.04,9,9S16.96,21,12,21z M17.5,10c-0.83,0-1.5,0.67-1.5,1.5s0.67,1.5,1.5,1.5s1.5-0.67,1.5-1.5
		S18.33,10,17.5,10z M15.5,15c-0.83,0-1.5,0.67-1.5,1.5s0.67,1.5,1.5,1.5s1.5-0.67,1.5-1.5S16.33,15,15.5,15z"/>
</g>
<g id="Sharp" display="none">
	<g id="ui_x5F_spec_x5F_header_copy_4">
	</g>
	<path display="inline" d="M8,11.5C8,10.67,7.33,10,6.5,10S5,10.67,5,11.5S5.67,13,6.5,13S8,12.33,8,11.5z M15,6.5
		C15,5.67,14.33,5,13.5,5h-3C9.67,5,9,5.67,9,6.5S9.67,8,10.5,8h3C14.33,8,15,7.33,15,6.5z M8.5,15C7.67,15,7,15.67,7,16.5
		S7.67,18,8.5,18s1.5-0.67,1.5-1.5S9.33,15,8.5,15z M12,1C5.93,1,1,5.93,1,12s4.93,11,11,11s11-4.93,11-11S18.07,1,12,1z M12,21
		c-4.96,0-9-4.04-9-9s4.04-9,9-9s9,4.04,9,9S16.96,21,12,21z M17.5,10c-0.83,0-1.5,0.67-1.5,1.5s0.67,1.5,1.5,1.5s1.5-0.67,1.5-1.5
		S18.33,10,17.5,10z M15.5,15c-0.83,0-1.5,0.67-1.5,1.5s0.67,1.5,1.5,1.5s1.5-0.67,1.5-1.5S16.33,15,15.5,15z"/>
</g>
<g id="Outline" fill="currentColor">
	<g id="ui_x5F_spec_x5F_header" display="none">
	</g>
	<path d="M8,11.5C8,10.67,7.33,10,6.5,10S5,10.67,5,11.5S5.67,13,6.5,13S8,12.33,8,11.5z M15,6.5C15,5.67,14.33,5,13.5,5h-3
		C9.67,5,9,5.67,9,6.5S9.67,8,10.5,8h3C14.33,8,15,7.33,15,6.5z M8.5,15C7.67,15,7,15.67,7,16.5S7.67,18,8.5,18s1.5-0.67,1.5-1.5
		S9.33,15,8.5,15z M12,1C5.93,1,1,5.93,1,12s4.93,11,11,11s11-4.93,11-11S18.07,1,12,1z M12,21c-4.96,0-9-4.04-9-9s4.04-9,9-9
		s9,4.04,9,9S16.96,21,12,21z M17.5,10c-0.83,0-1.5,0.67-1.5,1.5s0.67,1.5,1.5,1.5s1.5-0.67,1.5-1.5S18.33,10,17.5,10z M15.5,15
		c-0.83,0-1.5,0.67-1.5,1.5s0.67,1.5,1.5,1.5s1.5-0.67,1.5-1.5S16.33,15,15.5,15z"/>
</g>
<g id="Duotone" display="none">
	<g id="ui_x5F_spec_x5F_header_copy_2">
	</g>
	<g display="inline">
		<path opacity="0.3" d="M12,3c-4.96,0-9,4.04-9,9c0,4.96,4.04,9,9,9s9-4.04,9-9C21,7.04,16.96,3,12,3z M5,11.5
			C5,10.67,5.67,10,6.5,10S8,10.67,8,11.5C8,12.33,7.33,13,6.5,13S5,12.33,5,11.5z M8.5,18C7.67,18,7,17.33,7,16.5
			C7,15.67,7.67,15,8.5,15s1.5,0.67,1.5,1.5C10,17.33,9.33,18,8.5,18z M10.5,8C9.67,8,9,7.33,9,6.5C9,5.67,9.67,5,10.5,5h3
			C14.33,5,15,5.67,15,6.5C15,7.33,14.33,8,13.5,8H10.5z M15.5,18c-0.83,0-1.5-0.67-1.5-1.5c0-0.83,0.67-1.5,1.5-1.5
			s1.5,0.67,1.5,1.5C17,17.33,16.33,18,15.5,18z M17.5,13c-0.83,0-1.5-0.67-1.5-1.5c0-0.83,0.67-1.5,1.5-1.5s1.5,0.67,1.5,1.5
			C19,12.33,18.33,13,17.5,13z"/>
		<path d="M15,6.5C15,5.67,14.33,5,13.5,5h-3C9.67,5,9,5.67,9,6.5C9,7.33,9.67,8,10.5,8h3C14.33,8,15,7.33,15,6.5z"/>
		<circle cx="15.5" cy="16.5" r="1.5"/>
		<circle cx="17.5" cy="11.5" r="1.5"/>
		<path d="M12,1C5.93,1,1,5.93,1,12s4.93,11,11,11s11-4.93,11-11S18.07,1,12,1z M12,21c-4.96,0-9-4.04-9-9c0-4.96,4.04-9,9-9
			s9,4.04,9,9C21,16.96,16.96,21,12,21z"/>
		<circle cx="6.5" cy="11.5" r="1.5"/>
		<circle cx="8.5" cy="16.5" r="1.5"/>
	</g>
</g>
<g id="Material" display="none">
	<g id="ui_x5F_spec_x5F_header_copy">
	</g>
	<path display="inline" d="M8,11.5C8,10.67,7.33,10,6.5,10S5,10.67,5,11.5S5.67,13,6.5,13S8,12.33,8,11.5z M15,6.5
		C15,5.67,14.33,5,13.5,5h-3C9.67,5,9,5.67,9,6.5S9.67,8,10.5,8h3C14.33,8,15,7.33,15,6.5z M8.5,15C7.67,15,7,15.67,7,16.5
		S7.67,18,8.5,18s1.5-0.67,1.5-1.5S9.33,15,8.5,15z M12,1C5.93,1,1,5.93,1,12s4.93,11,11,11s11-4.93,11-11S18.07,1,12,1z M12,21
		c-4.96,0-9-4.04-9-9s4.04-9,9-9s9,4.04,9,9S16.96,21,12,21z M17.5,10c-0.83,0-1.5,0.67-1.5,1.5s0.67,1.5,1.5,1.5s1.5-0.67,1.5-1.5
		S18.33,10,17.5,10z M15.5,15c-0.83,0-1.5,0.67-1.5,1.5s0.67,1.5,1.5,1.5s1.5-0.67,1.5-1.5S16.33,15,15.5,15z"/>
</g>
</svg>
